X: 9365
T: Dancing Of Fingers
R: reel
M: 4/4
K: Dmixolydian
b ag|:fd (3ddd gc (3ccc|fd (3ddd {c}d2 cB|Addd c2 ec|1 Ad (3ddd dbag:|2 Ad (3ddd {A}d2||
K:D
|:df|abaf dfaf|bg (3ggg {e}g2 ef|ga{a}ge cege|ba (3aaa {e}a2 fg|
abaf dfaf|bg (3ggg {a}ggef|ga{ga}ge cege|1 fd ddd {A}d:|2 fd (3ddd {A}d2||

